!!!COM: Anon.
!!!OTL: Kosunoto
!!!OTC: Japanese Popular Music: A Collection of The Popular Music of Japan Rendered in to the Staff notation.
!!!CNT: Nippon, Japanese
!!!TXO: Nippon, Japan
!!!OCY: Nippon, Japan
!!!ODT: <1892///
!!!PSR: S. Miki & Co.
!!!PSP: Osaka, Nippon
!!!PDT: 1892///
!!!PPE: Y Nagai & K. Kobatake
!!!PED: Revised Second Edition
!!!PPG: page 46-47
!! Moderato
**kern	**silbe
*ICstr	*Lnippon
*ICvox	*
*Ikoto	*
*Ivox	*
*clefG2	*
*k[]	*
*M4/4	*
8.bb	.
16aa	.
=1	=1
4ff	.
4ee	.
2ff	.
=2	=2
4r	.
(4ff	.
2ff)	.
=3	=3
4ff	.
4aa	.
(4.bb	.
8aa)	.
=4	=4
(4ff	.
4ee	.
4dd)	.
8ff	.
8ee	.
=5	=5
8dd	.
8dd	.
8a	.
8b	.
4dd	.
(4dd	.
=6	=6
4dd	.
4ee	.
2ff)	.
=7	=7
(4ee	.
4b	.
4cc	.
4a)	.
=8	=8
8..b	.
(16a	.
2f	.
=9	=9
4e)	.
(4aa	.
8.bb	.
16aa	.
4ff)	.
=10	=10
(4ee	.
4ee	.
4.ee)	.
8c	.
=11	=11
4B	.
2B	.
4ee	.
=12	=12
4.b	.
8a	.
2f	.
=13	=13
4e	.
4cc	.
(4a	.
4f)	.
=14	=14
2.f	.
[4f	.
=15	=15
4f]	.
4a	.
2f	.
=16	=16
4e	.
4B	.
4d	.
4d	.
=17	=17
4d	.
4e	.
(2f	.
=18	=18
4f	.
2e	.
4f)	.
=19	=19
(2f	.
4a	.
8.b	.
16a)	.
=20	=20
4b	.
4b	.
4.e	.
8dd	.
=21	=21
4ee	.
4ee	.
2ee	.
=22	=22
4.ee	.
8cc	.
2b	.
=23	=23
4b	.
4e	.
8d	.
8d	.
8.e	.
16c	.
=24	=24
4B	.
4a	.
4aa	.
4ff	.
=25	=25
8ee	.
4ee	.
8cc	.
4b	.
4a	.
=26	=26
4b	.
4.cc	.
8ee	.
4b	.
=27	=27
4B	.
4a	.
4.b	.
(8a	.
=28	=28
2f)	.
2e	.
=29	=29
4e	.
4ee	.
2cc	.
=30	=30
4b	.
4ee	.
4cc	.
8b	.
8a	.
=31	=31
4f	.
8a	.
8cc	.
8b	.
8a	.
8.b	.
16a	.
=32	=32
2f	.
4e	.
8dd	.
8a	.
=33	=33
4a	.
8b	.
8a	.
4B	.
8.b	.
16d	.
=34	=34
4e	.
4ee	.
4b	.
8aa	.
8ccc	.
=35	=35
8.bb	.
16aa	.
4ff	.
4ee	.
4ee	.
=36	=36
4.ee	.
16r	.
16dd	.
4ee	.
8a	.
8f	.
=37	=37
4e	.
4B	.
4e 4ee	.
4ff	.
=38	=38
(4ff	.
4b)	.
8.b	.
16a	.
4f	.
=39	=39
4r	.
8.bb	.
16aa	.
(4ff	.
4ee	.
=40	=40
4dd)x	.
4r	.
4dd	.
4ee	.
=41	=41
2ff	.
2ee	.
=42	=42
4cc	.
2cc	.
4ee	.
=43	=43
(4.b	.
8a)	.
(4f	.
4e	.
=44	=44
2f)	.
(4f	.
4cc)	.
=45	=45
(4a	.
4f)	.
2f	.
=46	=46
(4e	.
4ee)	.
2cc	.
=47	=47
(4b	.
4a)	.
4r	.
4f	.
=48	=48
4r	.
4a	.
(4.b	.
8a)	.
=49	=49
(2f	.
4e)	.
4ff	.
=50	=50
(4.ee	.
8cc)	.
2b	.
=51	=51
4cc	.
4ee	.
(4ff	.
4ee)	.
=52	=52
(4cc	.
4b)	.
8a	.
8b	.
4c 4cc	.
=53	=53
4r	.
4a	.
(4.a	.
8cc)	.
=54	=54
(4b	.
8a	.
8b)	.
2B	.
=55	=55
4b	.
4ee	.
(2ff	.
=56	=56
2ee)	.
(4ee	.
4b)	.
=57	=57
(4cc	.
4a)	.
2b	.
=58	=58
2a	.
2b	.
=59	=59
2B 2b	.
4r	.
==	==
*-	*-
!!!ENC: David Huron
!!!RDT: 2000/1/30
!!!EEV: Release 1.0
!!!ELF: 14/28
!!!YER: 2000/2/1
!!!YEM: Copyright David Huron, 2000
!!!YEN: United States of America
